svgs/sharp-duotone-regular/volcano.svg

<svg xmlns="http://www.w3.org/2000/svg" viewBox="0 0 512 512"><!--! Font Awesome Pro 7.1.0 by @fontawesome - https://fontawesome.com License - https://fontawesome.com/license (Commercial License) Copyright 2025 Fonticons, Inc. --><path opacity=".4" fill="currentColor" d="M48 458.2l137.1-154.2 54.9 0 64 64 32 0 25.3-25.3 102.7 115.5 0 5.8-416 0 0-5.8z"/><path fill="currentColor" d="M160 144c-35.3 0-64-28.7-64-64s28.7-64 64-64c15.7 0 30 5.6 41.2 15 11.2-18.6 31.6-31 54.8-31s43.6 12.4 54.8 31c11.1-9.4 25.5-15 41.2-15 35.3 0 64 28.7 64 64s-28.7 64-64 64l-48 0-32 48-32 0-32-48-48 0zM48 458.2l0 5.8 416 0 0-5.8-102.7-115.5-25.3 25.3-32 0-64-64-54.9 0-137.1 154.2zM192 224l128 0 192 216 0 72-512 0 0-72 192-216z"/></svg>

<svg xmlns="http://www.w3.org/2000/svg" viewBox="0 0 512 512"><!--! Font Awesome Pro 6.7.2 by @fontawesome - https://fontawesome.com License - https://fontawesome.com/license (Commercial License) Copyright 2024 Fonticons, Inc. --><defs><style>.fa-secondary{opacity:.4}</style></defs><path class="fa-secondary" d="M48 458.2L185.1 304l22.9 0 32 0 64 64 32 0 25.3-25.3L464 458.2l0 5.8L48 464l0-5.8z"/><path class="fa-primary" d="M160 144c-35.3 0-64-28.7-64-64s28.7-64 64-64c15.7 0 30 5.6 41.2 15C212.4 12.4 232.7 0 256 0s43.6 12.4 54.8 31C322 21.6 336.3 16 352 16c35.3 0 64 28.7 64 64s-28.7 64-64 64l-48 0-32 48-32 0-32-48-48 0zM48 458.2l0 5.8 416 0 0-5.8L361.3 342.7 336 368l-32 0-64-64-32 0-22.9 0L48 458.2zM192 224l128 0L512 440l0 24 0 48-48 0L48 512 0 512l0-48 0-24L192 224z"/></svg>
